packages/sources/icons/src/vitamix/delete-bin-line.svg

<svg width="16" height="16" viewBox="0 0 16 16" xmlns="http://www.w3.org/2000/svg"><path d="M11.3333 4.00004H14.6666V5.33337H13.3333V14C13.3333 14.1769 13.2631 14.3464 13.1381 14.4714C13.013 14.5965 12.8435 14.6667 12.6666 14.6667H3.33331C3.1565 14.6667 2.98693 14.5965 2.86191 14.4714C2.73688 14.3464 2.66665 14.1769 2.66665 14V5.33337H1.33331V4.00004H4.66665V2.00004C4.66665 1.82323 4.73688 1.65366 4.86191 1.52864C4.98693 1.40361 5.1565 1.33337 5.33331 1.33337H10.6666C10.8435 1.33337 11.013 1.40361 11.1381 1.52864C11.2631 1.65366 11.3333 1.82323 11.3333 2.00004V4.00004ZM12 5.33337H3.99998V13.3334H12V5.33337ZM5.99998 2.66671V4.00004H9.99998V2.66671H5.99998Z"/></svg>

<svg width="16" height="16" xmlns="http://www.w3.org/2000/svg"><path d="M11.333 4h3.334v1.333h-1.334V14a.667.667 0 0 1-.666.667H3.333A.666.666 0 0 1 2.667 14V5.333H1.333V4h3.334V2a.667.667 0 0 1 .666-.667h5.334a.667.667 0 0 1 .666.667v2ZM12 5.333H4v8h8v-8ZM6 2.667V4h4V2.667H6Z"/></svg>
